X: 13
T: Dans Varietais
O: Breton?
M: C|
L: 1/8
K: Em
|: "Em"E2B2B2AB | G2E2E4 | "D"A2AGF2FE | "Bm"DEFAG2F2 |
   "Em"E2B2B2AB | G2E2E4 | "D"A2AGF2FE | "Bm"DEFG "Em"E4 :|
 "Em"EFGF EFGF | EFGA B4 | "D"DEFE D3E | F2A2 G2F2 |
 "Em"EFGF EFGF | EFGA B3 D- | "D"DEFG F2 A2 | G2 F2 "Em"E4 ||


